X: 2
T: Clorinda False
T:Treble 
C: Thomas Morley
%#Noindex
L: 1/4
M: C
%%measurenb 0
%%squarebreve
%%scale 0.95
K: F octave=1
 D4 | G3/ A/ B G |: F3/ E/ D D | E3/ E/ ^F G | ^F2 G B | A G A2 | 
w: Clo-rin-da false, a-dieu thy love, a-dieu, thy love tor-ments me thy love tor-ments
=B2z _B | A3/ G/ A F | G2 A2 | D G F B | 
w:me; Let Thyr-sis, Thyr-sis  have thy heart, since he con-
G3 A | ^F G2 F |[1 G2 D2 | G3/ A/ B G :|[2  G4 |
w:tents, con-tents __ thee. Clo-rin-da false, a- thee.
z2 G2 | B3 B | A ^F G2- | G2 ^F2 | G2 G2 | 
w:O grief and bit-ter an -- guish, O
d3 d | B2 c2 | d2 =B2 | c4 | =B2 _B2 | 
w:grief and bit-ter an -- guish; for
G2 G2 | F4- | F4 | F4 |z2 d d/c/ | 
w:thee I lan - guish. Fain I a-
B B d2 | A4 | B B/c/ d B | _e4 | d d d3/ d/ | 
w:las would hide it, fain I a-las would hide it. O but who
c B B A | B2 B2 | A3 G | ^F G G F | G4 |
w:can a-bide_ it? I can-not I, a-bide_ it.
z2 z =B | c/=B/c/B/ c B |z2 z =B | c/=B/c/B/ c B |
w:A-dieu, a-dieu, a-dieu then, a-dieu, a-dieu a-dieu then,
z2 G2- | G2 ^F2 |z G3/ G/ G | G G G2 | G2 B2 | 
w:fare -well leave me, death now de-sir-ing, thou
A3 A | A F/G/ A2 | A B A3/ F/ | G3/ A/ F3/ G/ | E D D/D/ B | 
w:hast, lo, thy re - quir-ing. Thus spake Phil-is-tus, on his hook re-ly-ing, thus
A3/ F/ G3/ _E/ | F B A G | ^F G F A | B2 A2 | 
w:spake Phil-is-tus, on his hook re-ly - ing, and sweet-ly,
D2 A2 | F2 D2 | D4 | =B,2z B | A3/ F/ G3/ A/ | 
w:sweet-ly, fell a-dy-ing. Thus spake Phil-is-tus, 
B B2 A | B B A3/ A/ | G F B, C | D/D/ ^F A3/ =F/ | G3/ A/ F3/ G/ | 
w:once, thus spake he, thus spake he, on his hook re-ly-ing, thus spake Phil-is-tus, on his
E D D/D/ B | A3/ F/ G3/ _E/ | F B A G | ^F G F A | 
w: hook re-ly-ing, thus spake Phil-is-tus, on his hook re-ly -ing, and
B2 A2 | D2 A2 | F2 D2 | D4 | D4|]
w:sweet-ly, sweet-ly, fell a-dy-ing. 

